white/dta.svg

<!-- Generated by IcoMoon.io -->
<svg version="1.1" xmlns="http://www.w3.org/2000/svg" width="32" height="32" viewBox="0 0 32 32">
<title>dta</title>
<path fill="#fff" d="M24.963 14.512l-0.020-1.949-11.152-6.563-2.713 1.674-0.006-0.003-3.072 1.813v13.022l2.831 1.812 2.992 1.682 11.177-6.521-0.017-4.968zM21.688 17.624l-7.854 4.618-2.292-1.363 7.807-4.594zM18.822 15.984l-4.837 2.923 0.021-5.681zM14.008 12.618l0.010-2.689 7.732 4.515v2.705zM10.82 23.57l-2.334-1.395v-12.279l2.346 1.401v9.572l0.018-0.010zM11.236 20.569v-9.273l2.345-1.401v9.256zM16 32c-8.837 0-16-7.163-16-16s7.163-16 16-16 16 7.163 16 16-7.163 16-16 16zM14.116 22.601l10.42-6.12-0.030 2.82-10.437 6.136zM21.909 14.017l-10.432-6.1 2.406-1.39 10.455 6.104z"></path>
</svg>

<svg height="32" viewBox="0 0 32 32" width="32" xmlns="http://www.w3.org/2000/svg"><path d="M24.963 14.512l-.02-1.949L13.791 6l-2.713 1.674-.006-.003L8 9.484v13.022l2.811 1.801h.001l.019.013v-.002L13.823 26 25 19.479l-.017-4.968zm-3.275 3.112l-7.854 4.618-2.292-1.363 7.807-4.594zm-2.866-1.64l-4.837 2.923.021-5.681zm-4.814-3.366l.01-2.689 7.732 4.515v2.705zM10.82 23.57l-2.334-1.395V9.896l2.346 1.401v9.572l.018-.01zm.416-3.001v-9.273l2.345-1.401v9.256zM16 32C7.163 32 0 24.837 0 16S7.163 0 16 0s16 7.163 16 16-7.163 16-16 16zm-1.884-9.399l10.42-6.12-.03 2.82-10.437 6.136zm7.793-8.584l-10.432-6.1 2.406-1.39 10.455 6.104z" fill="#fff" fill-rule="evenodd"/></svg>
